packages/foundations/assets/icons/functional/images/audio & video/fast_forward_30.svg

<svg xmlns="http://www.w3.org/2000/svg" width="32" height="32" fill="none"><path fill="#1A1C1F" fill-rule="evenodd" d="M14.053 5.06c-.344.214-.506.49-.506.865 0 .368.137.577.858 1.305l.695.702-.577.037c-1.672.107-2.957.439-4.363 1.126-2.686 1.314-4.758 3.708-5.65 6.532-1.054 3.332-.427 7.054 1.656 9.83.704.937.979 1.113 1.522.972.474-.123.739-.482.739-1.003 0-.315-.036-.381-.629-1.16a8.9 8.9 0 0 1-1.696-4.072c-.135-.914-.086-2.361.108-3.207a9.04 9.04 0 0 1 6.966-6.852c.58-.12 1.956-.238 2.106-.18.065.025-.121.241-.768.892-.469.473-.879.927-.91 1.01-.129.34-.009.89.244 1.114a1.2 1.2 0 0 0 .697.254c.4-.002.575-.146 2.343-1.926 1.595-1.604 1.719-1.743 1.764-1.966a1.12 1.12 0 0 0-.18-.864c-.161-.233-3.352-3.357-3.522-3.447-.186-.099-.712-.077-.897.038m-.429 10.965a6.5 6.5 0 0 0-1.517.465c-.63.267-.774.368-.914.644-.263.515-.066 1.091.461 1.349.361.176.502.161 1.173-.129.682-.294 1.137-.399 1.733-.401.388-.001.55.022.693.096.282.146.422.296.458.489.129.689-.639 1.27-2.249 1.702-.642.173-.879.317-1.029.627a.97.97 0 0 0-.031.826.85.85 0 0 0 .463.499c.239.123.518.128 1.082.019 1.638-.314 2.287-.056 2.287.909-.001 1.17-1.163 1.715-4.139 1.941-.724.055-.922.144-1.135.508a.98.98 0 0 0 .123 1.169c.299.316.512.36 1.416.298 3.802-.26 5.741-1.583 5.741-3.915 0-.895-.271-1.583-.855-2.166l-.358-.358.227-.325c.604-.868.637-2.122.08-2.991-.382-.595-1.138-1.095-1.894-1.254-.451-.095-1.302-.096-1.816-.002m9.443.01c-1.254.267-2.267 1.097-2.716 2.224-.289.726-.306.922-.285 3.339.019 2.119.025 2.233.141 2.614.49 1.622 1.76 2.602 3.5 2.703 1.434.083 2.729-.477 3.536-1.528.217-.283.437-.739.578-1.2l.147-.48.02-2.027c.022-2.216-.007-2.597-.249-3.283-.449-1.267-1.482-2.134-2.829-2.375-.525-.093-1.373-.087-1.843.013m1.947 2.04c.381.145.62.343.768.637.23.453.254.747.234 2.888-.017 1.904-.023 2.014-.133 2.283-.323.795-.935 1.113-2.043 1.063-.677-.03-1.063-.16-1.343-.452-.442-.461-.47-.65-.47-3.104 0-1.858.008-2.046.105-2.358.058-.186.178-.427.268-.535.188-.228.623-.457.995-.525.406-.074 1.304-.016 1.619.103"/></svg>

<svg width="32" height="32" viewBox="0 0 32 32" fill="none" xmlns="http://www.w3.org/2000/svg"><path d="M14.053 5.060 C 13.709 5.274,13.547 5.550,13.547 5.925 C 13.547 6.293,13.684 6.502,14.405 7.230 L 15.100 7.932 14.523 7.969 C 12.851 8.076,11.566 8.408,10.160 9.095 C 7.474 10.409,5.402 12.803,4.510 15.627 C 3.456 18.959,4.083 22.681,6.166 25.457 C 6.870 26.394,7.145 26.570,7.688 26.429 C 8.162 26.306,8.427 25.947,8.427 25.426 C 8.427 25.111,8.391 25.045,7.798 24.266 C 6.911 23.100,6.320 21.682,6.102 20.194 C 5.967 19.280,6.016 17.833,6.210 16.987 C 7.002 13.527,9.722 10.851,13.176 10.135 C 13.756 10.015,15.132 9.897,15.282 9.955 C 15.347 9.980,15.161 10.196,14.514 10.847 C 14.045 11.320,13.635 11.774,13.604 11.857 C 13.475 12.197,13.595 12.747,13.848 12.971 C 14.006 13.112,14.322 13.227,14.545 13.225 C 14.945 13.223,15.120 13.079,16.888 11.299 C 18.483 9.695,18.607 9.556,18.652 9.333 C 18.712 9.031,18.649 8.726,18.472 8.469 C 18.311 8.236,15.120 5.112,14.950 5.022 C 14.764 4.923,14.238 4.945,14.053 5.060 M13.624 16.025 C 13.082 16.123,12.682 16.246,12.107 16.490 C 11.477 16.757,11.333 16.858,11.193 17.134 C 10.930 17.649,11.127 18.225,11.654 18.483 C 12.015 18.659,12.156 18.644,12.827 18.354 C 13.509 18.060,13.964 17.955,14.560 17.953 C 14.948 17.952,15.110 17.975,15.253 18.049 C 15.535 18.195,15.675 18.345,15.711 18.538 C 15.840 19.227,15.072 19.808,13.462 20.240 C 12.820 20.413,12.583 20.557,12.433 20.867 C 12.299 21.143,12.289 21.422,12.402 21.693 C 12.508 21.946,12.620 22.068,12.865 22.192 C 13.104 22.315,13.383 22.320,13.947 22.211 C 15.585 21.897,16.234 22.155,16.234 23.120 C 16.233 24.290,15.071 24.835,12.095 25.061 C 11.371 25.116,11.173 25.205,10.960 25.569 C 10.738 25.947,10.789 26.427,11.083 26.738 C 11.382 27.054,11.595 27.098,12.499 27.036 C 16.301 26.776,18.240 25.453,18.240 23.121 C 18.240 22.226,17.969 21.538,17.385 20.955 L 17.027 20.597 17.254 20.272 C 17.858 19.404,17.891 18.150,17.334 17.281 C 16.952 16.686,16.196 16.186,15.440 16.027 C 14.989 15.932,14.138 15.931,13.624 16.025 M23.067 16.035 C 21.813 16.302,20.800 17.132,20.351 18.259 C 20.062 18.985,20.045 19.181,20.066 21.598 C 20.085 23.717,20.091 23.831,20.207 24.212 C 20.697 25.834,21.967 26.814,23.707 26.915 C 25.141 26.998,26.436 26.438,27.243 25.387 C 27.460 25.104,27.680 24.648,27.821 24.187 L 27.968 23.707 27.988 21.680 C 28.010 19.464,27.981 19.083,27.739 18.397 C 27.290 17.130,26.257 16.263,24.910 16.022 C 24.385 15.929,23.537 15.935,23.067 16.035 M25.014 18.075 C 25.395 18.220,25.634 18.418,25.782 18.712 C 26.012 19.165,26.036 19.459,26.016 21.600 C 25.999 23.504,25.993 23.614,25.883 23.883 C 25.560 24.678,24.948 24.996,23.840 24.946 C 23.163 24.916,22.777 24.786,22.497 24.494 C 22.055 24.033,22.027 23.844,22.027 21.390 C 22.027 19.532,22.035 19.344,22.132 19.032 C 22.190 18.846,22.310 18.605,22.400 18.497 C 22.588 18.269,23.023 18.040,23.395 17.972 C 23.801 17.898,24.699 17.956,25.014 18.075 " fill="#1A1C1F" stroke="none" fill-rule="evenodd"></path></svg>
